svgs/sharp-regular/diploma.svg

<svg xmlns="http://www.w3.org/2000/svg" viewBox="0 0 640 512"><!--! Font Awesome Pro 6.6.0 by @fontawesome - https://fontawesome.com License - https://fontawesome.com/license (Commercial License) Copyright 2024 Fonticons, Inc. --><path d="M208 144l0-31 0-.5c.3-18 14.9-32.5 33-32.5c9.5 0 18.6 4.1 24.8 11.3L312 144l-72 0-32 0zm120 0l46.1-52.7C380.4 84.1 389.5 80 399 80l1 0c17.7 0 32 14.3 32 32l0 .5 0 .5 0 31-32 0-72 0zm152 48l112 0 0 84.7-42.7 85.5L384 331.2 384 192l48 0 48 0zM384 380l192 36 64-128 0-96 0-48-48 0-112 0 0-31c0-44.7-36.3-81-81-81c-23.4 0-45.6 10.1-61 27.7L320 80.3 302 59.7C286.6 42.1 264.4 32 241 32c-44.7 0-81 36.3-81 81l0 31L48 144 0 144l0 48 0 96L64 416l192-36 0 100 64-40 64 40 0-100zM256 331.2l-165.3 31L48 276.7 48 192l112 0 48 0 48 0 0 139.2z"/></svg>

<svg xmlns="http://www.w3.org/2000/svg" viewBox="0 0 640 512"><!--! Font Awesome Pro 6.4.2 by @fontawesome - https://fontawesome.com License - https://fontawesome.com/license (Commercial License) Copyright 2023 Fonticons, Inc. --><path d="M208 144V113l0-.5c.3-18 14.9-32.5 33-32.5c9.5 0 18.6 4.1 24.8 11.3L312 144H240 208zm120 0l46.1-52.7C380.4 84.1 389.5 80 399 80h1c17.7 0 32 14.3 32 32l0 .5 0 .5v31H400 328zm152 48H592v84.7l-42.7 85.5L384 331.2V192h48 48zM384 380l192 36 64-128V192 144H592 480V113c0-44.7-36.3-81-81-81c-23.4 0-45.6 10.1-61 27.7L320 80.3 302 59.7C286.6 42.1 264.4 32 241 32c-44.7 0-81 36.3-81 81v31H48 0v48 96L64 416l192-36V480l64-40 64 40V380zM256 331.2l-165.3 31L48 276.7V192H160h48 48V331.2z"/></svg>
